profiles/truehue_measured.ti3
CTI3
DESCRIPTOR	Camera target data
CREATED	2025-10-04T15:54:44.928827
DEVICE_CLASS	INPUT
DEVICE_MODEL	TrueHue Calibrator
INSTRUMENT_TYPE	Camera
TARGET_INSTRUMENT_TYPE	Spectrophotometer
BEGIN_DATA_FORMAT
SAMPLE_ID RGB_R RGB_G RGB_B LAB_L LAB_A LAB_B
END_DATA_FORMAT
BEGIN_DATA
1	0.526405	0.542030	0.386933	37.9900	13.5600	14.0600
2	0.517851	0.517003	0.359755	65.7100	18.1300	17.8100
3	0.515955	0.527463	0.361426	49.9300	-4.8800	-21.9300
4	0.448661	0.466764	0.311634	43.1400	-13.1000	21.9200
5	0.445671	0.474655	0.321181	55.1200	8.9300	-25.3900
6	0.439831	0.477614	0.325348	70.7200	-33.4000	-0.2000
7	0.214731	0.242013	0.164147	62.6600	36.0700	57.1000
8	0.237136	0.260385	0.178389	40.0200	10.4100	-45.9600
9	0.172081	0.197918	0.125198	51.1200	48.2400	16.2500
10	0.233664	0.261844	0.177642	30.3300	22.9800	-21.5900
11	0.335258	0.367620	0.259938	72.5300	-23.7100	57.2600
12	0.438360	0.465980	0.332768	71.9400	19.3600	67.8600
13	0.483886	0.524749	0.390477	28.7800	14.1800	-50.3000
14	0.460109	0.501081	0.372378	55.2600	-38.3400	31.3700
15	0.581376	0.631722	0.474025	42.1000	53.3800	28.1900
16	0.726743	0.789500	0.603463	81.7300	4.0400	79.8200
17	0.649557	0.707827	0.535403	49.9000	-44.0200	-4.5600
18	0.566434	0.619708	0.463952	52.1200	7.4900	-36.3200
19	0.467746	0.559582	0.423957	96.5400	-0.4300	1.1900
20	0.409718	0.517269	0.394838	81.2600	-0.6400	-0.4800
21	0.356376	0.469628	0.358631	66.7700	-0.7300	-0.8300
22	0.396031	0.511860	0.383867	50.8700	-0.1500	-0.2700
23	0.403563	0.515277	0.380951	35.6600	-0.4200	-1.2200
24	0.389184	0.482700	0.358935	20.4600	-0.0800	-0.9700
END_DATA
